; generated by PrusaSlicer 2.7.1 on 2024-03-06 at 20:02:19 UTC


;
;
; 

; external perimeters extrusion width = 0.45mm
; perimeters extrusion width = 0.45mm
; infill extrusion width = 0.45mm
; solid infill extrusion width = 0.45mm
; top infill extrusion width = 0.40mm
; first layer extrusion width = 0.42mm

M73 P0 R22
M73 Q0 S23
M201 X1000 Y1000 Z200 E5000 ; sets maximum accelerations, mm/sec^2
M203 X200 Y200 Z12 E120 ; sets maximum feedrates, mm / sec
M204 S1250 T1250 ; sets acceleration (S) and retract acceleration (R), mm/sec^2
M205 X8.00 Y8.00 Z0.40 E4.50 ; sets the jerk limits, mm/sec
M205 S0 T0 ; sets the minimum extruding and travel feed rate, mm/sec

; printing object BatteryMount_Strap.STL id:0 copy 0
; stop printing object BatteryMount_Strap.STL id:0 copy 0

;TYPE:Custom
M862.3 P "MK3" ; printer model check
M862.1 P0.4 ; nozzle diameter check
M115 U3.13.0 ; tell printer latest fw version
G90 ; use absolute coordinates
M83 ; extruder relative mode
M104 S215 ; set extruder temp
M140 S60 ; set bed temp
M190 S60 ; wait for bed temp
M109 S215 ; wait for extruder temp
G28 W ; home all without mesh bed level
G80 ; mesh bed leveling

G1 Z0.2 F720
G1 Y-3 F1000 ; go outside print area
G92 E0
G1 X60 E9 F1000 ; intro line
G1 X100 E12.5 F1000 ; intro line

G92 E0
M221 S95

; Don't change E values below. Excessive value can damage the printer.
M907 E430 ; set extruder motor current
G21 ; set units to millimeters
G90 ; use absolute coordinates
M83 ; use relative distances for extrusion
M900 K0.05 ; Filament gcode LA 1.5
M900 K30 ; Filament gcode LA 1.0
M107
;LAYER_CHANGE
;Z:0.2
;HEIGHT:0.2
;BEFORE_LAYER_CHANGE
G92 E0.0
;0.2


G1 E-.8 F2100
G1 Z.2 F720
;AFTER_LAYER_CHANGE
;0.2
G1 X87.26 Y95.994 F10800
G1 Z.2 F720
G1 E.8 F2100
M204 S800
;TYPE:Skirt/Brim
;WIDTH:0.42
G1 F1200
G1 X88.94 Y95.298 E.05702
G1 X161.06 Y95.298 E2.26127
G1 X162.74 Y95.994 E.05702
G1 X164.205 Y97.459 E.06496
G1 X164.901 Y99.139 E.05702
G1 X164.901 Y102.011 E.09005
G1 X164.205 Y103.691 E.05702
G1 X162.684 Y105.211 E.06742
G1 X153.865 Y113.443 E.37826
G1 X153.233 Y113.886 E.0242
G1 X152.344 Y114.322 E.03105
G1 X151.393 Y114.596 E.03103
G1 X150.662 Y114.688 E.0231
G1 X99.654 Y114.702 E1.59932
G1 X98.607 Y114.596 E.033
M73 P1 R22
M73 Q1 S23
G1 X97.861 Y114.396 E.02422
G1 X97.14 Y114.091 E.02455
G1 X96.592 Y113.775 E.01983
G1 X95.871 Y113.218 E.02857
G1 X87.316 Y105.211 E.36739
G1 X85.795 Y103.691 E.06742
G1 X85.099 Y102.011 E.05702
G1 X85.099 Y99.139 E.09005
G1 X85.795 Y97.459 E.05702
G1 X87.217 Y96.037 E.06305
M204 S1000
;WIPE_START
G1 F8640
G1 X87.26 Y95.994 E-.01404
G1 X88.94 Y95.298 E-.41989
G1 X90.525 Y95.298 E-.36607
;WIPE_END
G1 Z.6 F720
G1 X88.849 Y98.296 F10800
G1 Z.2 F720
G1 E.8 F2100
M204 S800
G1 F1200
G1 X89.605 Y98.022 E.02521
G1 X100.553 Y98.005 E.34327
G1 X100.997 Y98.102 E.01425
G1 X101.443 Y98.309 E.01542
G1 X101.967 Y98.766 E.0218
G1 X102.261 Y99.21 E.0167
G1 X102.446 Y99.753 E.01799
G1 X102.473 Y106.251 E.20374
G1 X147.526 Y106.251 E1.41261
G1 X147.526 Y99.93 E.19819
G1 X147.714 Y99.266 E.02164
G1 X147.904 Y98.924 E.01227
G1 X148.485 Y98.357 E.02545
G1 X148.776 Y98.194 E.01046
G1 X149.455 Y98.001 E.02213
G1 X160.332 Y98.011 E.34104
G1 X160.998 Y98.218 E.02187
G1 X161.389 Y98.47 E.01459
G1 X161.842 Y98.96 E.02092
G1 X162.108 Y99.511 E.01918
G1 X162.194 Y99.921 E.01314
G1 X162.198 Y101.219 E.0407
G1 X162.008 Y101.891 E.0219
G1 X161.742 Y102.322 E.01588
G1 X161.196 Y102.825 E.02328
G1 X160.406 Y103.126 E.02651
G1 X154.388 Y103.149 E.18869
G1 X153.952 Y103.218 E.01384
G1 X153.645 Y103.395 E.01111
G1 X153.343 Y103.827 E.01653
G1 X153.274 Y104.261 E.01378
G1 X153.274 Y109.06 E.15047
G1 X153.106 Y110.006 E.03013
G1 X152.8 Y110.635 E.02193
G1 X152.161 Y111.344 E.02993
G1 X151.331 Y111.814 E.02991
G1 X150.35 Y111.998 E.03129
G1 X99.262 Y111.966 E1.60183
G1 X98.547 Y111.766 E.02328
G1 X97.757 Y111.275 E.02916
G1 X97.14 Y110.536 E.03019
G1 X96.899 Y110.022 E.0178
G1 X96.726 Y109.065 E.03049
G1 X96.726 Y104.261 E.15063
G1 X96.657 Y103.827 E.01378
G1 X96.355 Y103.395 E.01653
G1 X96.048 Y103.218 E.01111
G1 X95.613 Y103.149 E.01381
G1 X89.543 Y103.118 E.19032
G1 X89.047 Y102.954 E.01638
G1 X88.675 Y102.732 E.01358
G1 X88.208 Y102.256 E.02091
G1 X87.995 Y101.898 E.01306
G1 X87.802 Y101.22 E.0221
G1 X87.811 Y99.881 E.04198
G1 X87.925 Y99.42 E.01489
G1 X88.199 Y98.9 E.01843
G1 X88.805 Y98.337 E.02594
M204 S1000
G1 X89.048 Y98.617 F10800
M204 S800
G1 F1200
G1 X89.699 Y98.388 E.02164
G1 X100.531 Y98.382 E.33963
G1 X100.89 Y98.465 E.01155
G1 X101.256 Y98.637 E.01268
G1 X101.696 Y99.03 E.0185
G1 X101.931 Y99.393 E.01356
G1 X102.078 Y99.841 E.01478
G1 X102.097 Y106.628 E.2128
G1 X147.903 Y106.628 E1.43621
G1 X147.903 Y99.958 E.20913
M73 P2 R22
M73 Q2 S23
G1 X148.217 Y99.135 E.02762
G1 X148.695 Y98.671 E.02089
G1 X149.483 Y98.378 E.02636
G1 X160.301 Y98.388 E.33919
G1 X160.855 Y98.567 E.01825
G1 X161.161 Y98.771 E.01153
G1 X161.516 Y99.152 E.01633
G1 X161.817 Y99.943 E.02654
M73 Q2 S22
G1 X161.821 Y101.192 E.03916
G1 X161.654 Y101.758 E.0185
G1 X161.438 Y102.098 E.01263
G1 X160.832 Y102.596 E.02459
G1 X160.373 Y102.75 E.01518
G1 X154.057 Y102.799 E.19804
G1 X153.601 Y102.965 E.01522
G1 X153.23 Y103.277 E.0152
G1 X152.987 Y103.697 E.01521
G1 X152.897 Y104.245 E.01741
G1 X152.897 Y109.051 E.15069
G1 X152.757 Y109.861 E.02577
G1 X152.488 Y110.422 E.01951
G1 X151.934 Y111.042 E.02607
G1 X151.187 Y111.464 E.0269
G1 X150.326 Y111.622 E.02745
G1 X99.343 Y111.597 E1.59854
G1 X98.703 Y111.422 E.0208
G1 X97.994 Y110.981 E.02618
G1 X97.458 Y110.333 E.02637
G1 X97.259 Y109.907 E.01474
G1 X97.103 Y109.055 E.02716
G1 X97.076 Y103.932 E.16063
G1 X96.91 Y103.476 E.01522
G1 X96.598 Y103.105 E.0152
G1 X96.178 Y102.862 E.01521
G1 X95.63 Y102.772 E.01741
G1 X89.633 Y102.751 E.18803
G1 X88.893 Y102.424 E.02537
G1 X88.495 Y102.011 E.01798
G1 X88.179 Y101.193 E.0275
G1 X88.183 Y99.945 E.03913
G1 X88.27 Y99.574 E.01195
G1 X88.52 Y99.101 E.01677
G1 X89.004 Y98.658 E.02057
M204 S1000
G1 X89.244 Y98.941 F10800
M204 S800
G1 F1200
G1 X89.79 Y98.755 E.01809
G1 X100.509 Y98.759 E.33609
G1 X101.068 Y98.966 E.01869
G1 X101.423 Y99.29 E.01507
G1 X101.71 Y99.93 E.02199
G1 X101.72 Y107.005 E.22183
G1 X148.28 Y107.005 E1.45986
G1 X148.28 Y99.987 E.22004
G1 X148.528 Y99.35 E.02143
G1 X149.043 Y98.901 E.02142
G1 X149.512 Y98.755 E.0154
G1 X160.268 Y98.765 E.33725
G1 X160.904 Y99.047 E.02181
G1 X161.194 Y99.349 E.01313
G1 X161.384 Y99.725 E.01321
G1 X161.444 Y101.163 E.04513
G1 X161.303 Y101.618 E.01494
G1 X161.137 Y101.87 E.00946
G1 X160.786 Y102.191 E.01491
G1 X160.338 Y102.373 E.01516
G1 X154.353 Y102.395 E.18766
G1 X153.693 Y102.507 E.02099
G1 X153.159 Y102.815 E.01933
G1 X152.762 Y103.287 E.01934
G1 X152.551 Y103.867 E.01935
G1 X152.52 Y109.043 E.16229
G1 X152.408 Y109.719 E.02148
G1 X152.175 Y110.212 E.0171
G1 X151.706 Y110.742 E.02219
G1 X151.074 Y111.104 E.02284
G1 X150.642 Y111.217 E.014
G1 X99.389 Y111.222 E1.607
G1 X98.856 Y111.077 E.01732
M73 P3 R21
M73 Q3 S22
G1 X98.231 Y110.688 E.02308
G1 X97.777 Y110.131 E.02253
G1 X97.618 Y109.79 E.0118
G1 X97.48 Y109.045 E.02376
G1 X97.48 Y104.228 E.15103
G1 X97.368 Y103.568 E.02099
G1 X97.06 Y103.034 E.01933
G1 X96.588 Y102.637 E.01934
G1 X96.008 Y102.426 E.01935
G1 X89.723 Y102.384 E.19707
G1 X89.329 Y102.253 E.01302
G1 X89.116 Y102.119 E.00789
G1 X88.702 Y101.632 E.02004
G1 X88.556 Y101.163 E.0154
G1 X88.556 Y100.004 E.03634
G1 X88.839 Y99.304 E.02367
G1 X89.2 Y98.981 E.01519
M204 S1000
G1 X89.349 Y99.328 F10800
M204 S800
G1 F1200
G1 X89.821 Y99.132 E.01602
G1 X100.487 Y99.136 E.33442
G1 X100.878 Y99.293 E.01321
G1 X101.23 Y99.675 E.01629
G1 X101.343 Y100.019 E.01135
G1 X101.343 Y107.382 E.23086
G1 X148.657 Y107.382 E1.4835
G1 X148.657 Y100.019 E.23086
G1 X148.834 Y99.572 E.01507
G1 X149.153 Y99.269 E.01379
G1 X149.544 Y99.132 E.01299
G1 X160.18 Y99.132 E.33348
G1 X160.524 Y99.245 E.01135
G1 X160.872 Y99.548 E.01447
G1 X161.067 Y100.022 E.01607
G1 X161.067 Y101.131 E.03477
G1 X160.865 Y101.609 E.01627
G1 X160.539 Y101.9 E.0137
G1 X160.241 Y102.007 E.00993
G1 X153.926 Y102.054 E.19801
G1 X153.223 Y102.31 E.02346
G1 X152.65 Y102.79 E.02344
G1 X152.276 Y103.438 E.02346
G1 X152.179 Y103.801 E.01178
G1 X152.143 Y109.035 E.16411
G1 X152.046 Y109.609 E.01825
G1 X151.861 Y110.003 E.01365
G1 X151.456 Y110.459 E.01912
G1 X150.931 Y110.755 E.0189
G1 X150.31 Y110.868 E.01979
G1 X99.436 Y110.848 E1.59512
G1 X99.01 Y110.732 E.01384
G1 X98.471 Y110.397 E.0199
G1 X98.097 Y109.931 E.01873
G1 X97.896 Y109.393 E.01801
G1 X97.821 Y103.801 E.17535
G1 X97.565 Y103.098 E.02346
G1 X97.085 Y102.525 E.02344
G1 X96.437 Y102.151 E.02346
G1 X95.663 Y102.018 E.02462
G1 X89.759 Y102.007 E.18512
G1 X89.373 Y101.841 E.01317
G1 X89.07 Y101.522 E.01379
G1 X88.933 Y101.131 E.01299
G1 X88.965 Y99.871 E.03952
G1 X89.128 Y99.548 E.01134
G1 X89.306 Y99.37 E.00789
M204 S1000
G1 X89.601 Y99.609 F10800
M204 S800
G1 F1200
G1 X89.855 Y99.509 E.00856
G1 X100.467 Y99.516 E.33273
G1 X100.866 Y99.8 E.01536
G1 X100.966 Y100.054 E.00856
G1 X100.966 Y107.759 E.24158
G1 X149.034 Y107.759 E1.50714
G1 X149.034 Y100.054 E.24158
M73 P4 R21
M73 Q4 S22
G1 X149.132 Y99.803 E.00845
G1 X149.366 Y99.586 E.01001
G1 X149.579 Y99.509 E.0071
G1 X160.145 Y99.509 E.33129
G1 X160.399 Y99.609 E.00856
G1 X160.683 Y100.008 E.01536
G1 X160.69 Y101.096 E.03411
G1 X160.592 Y101.347 E.00845
G1 X160.358 Y101.564 E.01001
G1 X160.145 Y101.641 E.0071
G1 X154.32 Y101.641 E.18264
G1 X153.434 Y101.795 E.0282
G1 X152.672 Y102.235 E.02759
G1 X152.107 Y102.909 E.02758
G1 X151.806 Y103.735 E.02756
G1 X151.766 Y109.027 E.16593
G1 X151.685 Y109.5 E.01505
G1 X151.547 Y109.793 E.01015
G1 X151.209 Y110.173 E.01595
G1 X150.79 Y110.405 E.01502
G1 X150.301 Y110.491 E.01557
G1 X99.484 Y110.473 E1.59333
G1 X99.161 Y110.386 E.01049
G1 X98.73 Y110.122 E.01585
G1 X98.43 Y109.754 E.01489
G1 X98.263 Y109.306 E.01499
G1 X98.194 Y103.735 E.17469
G1 X97.893 Y102.909 E.02756
G1 X97.328 Y102.235 E.02758
G1 X96.566 Y101.795 E.02759
G1 X95.68 Y101.641 E.0282
G1 X89.855 Y101.641 E.18264
G1 X89.604 Y101.543 E.00845
G1 X89.387 Y101.309 E.01001
G1 X89.31 Y101.096 E.0071
G1 X89.317 Y100.008 E.03411
G1 X89.566 Y99.658 E.01347
M204 S1000
G1 X89.846 Y99.938 F10800
M204 S800
G1 F1200
G1 X89.897 Y99.886 E.00228
G1 X100.379 Y99.886 E.32866
G1 X100.589 Y100.096 E.00931
G1 X100.589 Y108.136 E.25209
G1 X149.411 Y108.136 E1.53078
G1 X149.411 Y100.096 E.25209
G1 X149.552 Y99.915 E.00719
G1 X160.103 Y99.886 E.33082
G1 X160.313 Y100.096 E.00931
G1 X160.313 Y101.054 E.03004
G1 X160.103 Y101.264 E.00931
G1 X153.794 Y101.308 E.19782
G1 X152.844 Y101.654 E.0317
G1 X152.429 Y101.945 E.01589
G1 X151.779 Y102.719 E.03169
G1 X151.433 Y103.669 E.0317
G1 X151.389 Y109.019 E.16775
G1 X151.325 Y109.387 E.01171
G1 X150.984 Y109.87 E.01854
G1 X150.654 Y110.053 E.01183
G1 X150.294 Y110.114 E.01145
G1 X99.532 Y110.099 E1.59161
G1 X98.986 Y109.845 E.01888
M73 P5 R21
G1 X98.763 Y109.576 E.01096
G1 X98.631 Y109.223 E.01182
G1 X98.567 Y103.669 E.17415
G1 X98.221 Y102.719 E.0317
G1 X97.571 Y101.945 E.03169
G1 X97.156 Y101.654 E.01589
G1 X96.206 Y101.308 E.0317
G1 X89.897 Y101.264 E.19782
G1 X89.687 Y101.054 E.00931
M73 Q5 S22
G1 X89.687 Y100.096 E.03004
G1 X89.803 Y99.98 E.00514
M204 S1000
; printing object BatteryMount_Strap.STL id:0 copy 0
;WIPE_START
G1 F8640
G1 X89.846 Y99.938 E-.01388
G1 X89.897 Y99.886 E-.01682
G1 X93.229 Y99.886 E-.7693
;WIPE_END
G1 Z.6 F720
G1 X150.689 Y102.058 F10800
G1 Z.2 F720
G1 E.8 F2100
M204 S800
;TYPE:Perimeter
;WIDTH:0.469051
G1 F1200
G1 X150.689 Y101.164 E.03168
G1 X151.404 Y101.164 E.02533
G1 X151.039 Y101.549 E.0188
G1 X150.723 Y102.009 E.01977
M204 S1000
;WIPE_START
G1 F8640
G1 X150.689 Y102.058 E-.01377
G1 X150.689 Y101.164 E-.20643
G1 X151.404 Y101.164 E-.1651
G1 X151.039 Y101.549 E-.1225
G1 X150.723 Y102.009 E-.12886
;WIPE_END
G1 E-.16334 F2100
G1 Z.6 F720
G1 X149.656 Y109.125 F10800
G1 Z.2 F720
G1 E.8 F2100
M204 S800
;WIDTH:0.645842
G1 F1200
G1 X149.721 Y109.1 E.00349
;WIDTH:0.596745
G1 X149.772 Y109.065 E.00285
;WIDTH:0.551701
G1 X149.822 Y109.03 E.00258
;WIDTH:0.506657
G1 X149.873 Y108.995 E.00239
;WIDTH:0.461613
G1 X149.923 Y108.96 E.00212
;WIDTH:0.416569
G1 X149.974 Y108.925 E.00192
;WIDTH:0.406662
G1 X150.039 Y108.902 E.00209
;WIDTH:0.441799
G1 X150.104 Y108.878 E.0023
G1 X150.168 Y108.798 E.0034
;WIDTH:0.425833
G1 X150.209 Y108.622 E.00575
;WIDTH:0.385107
G1 X150.249 Y108.446 E.00514
;WIDTH:0.344381
G1 X150.249 Y104.165 E.10731
;WIDTH:0.345673
G1 X150.25 Y104.106 E.00149
;WIDTH:0.385358
G1 X150.27 Y103.43 E.01926
;WIDTH:0.419999
G1 X150.287 Y102.869 E.0176
G1 X150.287 Y100.762 E.06606
G1 X152.685 Y100.762 E.07519
G1 X152.364 Y100.921 E.01123
G1 X151.829 Y101.307 E.02068
G1 X151.368 Y101.779 E.02069
G1 X150.997 Y102.325 E.0207
G1 X150.726 Y102.927 E.0207
G1 X150.657 Y103.247 E.01026
;WIDTH:0.394887
G1 X150.588 Y103.568 E.00961
;WIDTH:0.369775
G1 X150.551 Y104.165 E.01626
;WIDTH:0.344381
G1 X150.551 Y108.446 E.10731
;WIDTH:0.385107
G1 X150.53 Y108.682 E.00674
;WIDTH:0.425833
G1 X150.51 Y108.917 E.00751
;WIDTH:0.448703
G1 X150.447 Y109.134 E.00762
G1 X150.358 Y109.187 E.0035
G1 X150.204 Y109.214 E.00528
;WIDTH:0.410114
G1 X150.051 Y109.241 E.00474
;WIDTH:0.417244
G1 X149.985 Y109.222 E.00214
;WIDTH:0.462964
G1 X149.919 Y109.203 E.0024
;WIDTH:0.508683
G1 X149.853 Y109.183 E.00267
;WIDTH:0.554403
G1 X149.788 Y109.164 E.00288
;WIDTH:0.600123
G1 X149.722 Y109.144 E.0032
;WIDTH:0.645842
G1 X149.714 Y109.142 E.00041
M204 S1000
;WIPE_START
G1 F8640
G1 X149.656 Y109.125 E-.01396
G1 X149.721 Y109.1 E-.01608
;WIPE_END
G1 E-.76996 F2100
G1 Z.6 F720
G1 X99.311 Y102.058 F10800
G1 Z.2 F720
G1 E.8 F2100
M204 S800
;WIDTH:0.469052
G1 F1200
G1 X98.961 Y101.549 E.02189
G1 X98.596 Y101.164 E.0188
G1 X99.311 Y101.164 E.02533
G1 X99.311 Y101.998 E.02955
M204 S1000
;WIPE_START
G1 F8640
G1 X99.311 Y102.058 E-.01385
G1 X98.961 Y101.549 E-.14263
G1 X98.596 Y101.164 E-.1225
G1 X99.311 Y101.164 E-.1651
G1 X99.311 Y101.998 E-.19257
;WIPE_END
G1 E-.16335 F2100
G1 Z.6 F720
G1 X99.753 Y108.478 F10800
G1 Z.2 F720
G1 E.8 F2100
M204 S800
;WIDTH:0.349523
G1 F1200
G1 X99.756 Y108.538 E.00153
;WIDTH:0.398546
G1 X99.812 Y108.697 E.00498
;WIDTH:0.447569
G1 X99.869 Y108.856 E.00568
;WIDTH:0.497138
G1 X99.971 Y108.923 E.00461
;WIDTH:0.546706
G1 X100.074 Y108.991 E.00517
;WIDTH:0.596274
G1 X100.176 Y109.058 E.00562
;WIDTH:0.645842
G1 X100.279 Y109.125 E.00616
G1 X100.161 Y109.15 E.00605
;WIDTH:0.596274
G1 X100.043 Y109.175 E.00555
;WIDTH:0.546706
G1 X99.926 Y109.199 E.005
;WIDTH:0.497138
G1 X99.808 Y109.224 E.00456
;WIDTH:0.447569
G1 X99.61 Y109.178 E.00684
G1 X99.496 Y108.966 E.0081
;WIDTH:0.425832
G1 X99.473 Y108.706 E.00831
;WIDTH:0.385107
G1 X99.449 Y108.446 E.00743
;WIDTH:0.344382
G1 X99.449 Y104.165 E.10731
;WIDTH:0.345675
G1 X99.448 Y104.119 E.00116
;WIDTH:0.385359
G1 X99.403 Y103.474 E.01841
;WIDTH:0.419999
G1 X99.241 Y102.834 E.0207
G1 X98.954 Y102.239 E.02071
G1 X98.568 Y101.704 E.02068
G1 X98.096 Y101.243 E.02069
G1 X97.636 Y100.921 E.01761
G1 X97.315 Y100.762 E.01123
G1 X99.713 Y100.762 E.07519
G1 X99.725 Y103.211 E.07679
;WIDTH:0.394888
G1 X99.738 Y103.554 E.01005
;WIDTH:0.369776
G1 X99.751 Y104.165 E.01661
;WIDTH:0.344382
G1 X99.751 Y108.419 E.10663
M204 S1000
G1 X100.09 Y108.446 F10800
M204 S800
;TYPE:External perimeter
;WIDTH:0.419999
G1 F1200
G1 X100.13 Y108.563 E.00388
G1 X100.279 Y108.635 E.00519
G1 X149.721 Y108.635 E1.55022
G1 X149.846 Y108.588 E.00419
G1 X149.91 Y108.446 E.00488
G1 X149.91 Y100.385 E.25275
G1 X153.073 Y100.385 E.09917
;WIDTH:0.446282
G1 X153.705 Y100.398 E.0212
G1 X154.29 Y100.386 E.01962
;WIDTH:0.42146
G1 X159.813 Y100.386 E.17384
G1 X159.813 Y100.575 E.00595
G1 X159.813 Y100.764 E.00595
G1 X154.29 Y100.764 E.17384
;WIDTH:0.422181
G1 X154.274 Y100.765 E.00051
;WIDTH:0.445984
G1 X153.688 Y100.807 E.01969
G1 X153.118 Y100.976 E.01993
;WIDTH:0.419999
G1 X152.581 Y101.23 E.01863
G1 X152.095 Y101.573 E.01865
G1 X151.677 Y101.996 E.01865
G1 X151.339 Y102.484 E.01861
G1 X151.09 Y103.024 E.01864
G1 X150.939 Y103.599 E.01864
G1 X150.89 Y104.165 E.01781
G1 X150.89 Y108.917 E.149
G1 X150.802 Y109.325 E.01309
