; generated by PrusaSlicer 2.7.1 on 2024-03-06 at 20:00:15 UTC


;
;
; 

; external perimeters extrusion width = 0.45mm
; perimeters extrusion width = 0.45mm
; infill extrusion width = 0.45mm
; solid infill extrusion width = 0.45mm
; top infill extrusion width = 0.40mm
; first layer extrusion width = 0.42mm

M73 P0 R124
M73 Q0 S125
M201 X1000 Y1000 Z200 E5000 ; sets maximum accelerations, mm/sec^2
M203 X200 Y200 Z12 E120 ; sets maximum feedrates, mm / sec
M204 S1250 T1250 ; sets acceleration (S) and retract acceleration (R), mm/sec^2
M205 X8.00 Y8.00 Z0.40 E4.50 ; sets the jerk limits, mm/sec
M205 S0 T0 ; sets the minimum extruding and travel feed rate, mm/sec

; printing object BatteryMount_LargeBox.STL id:0 copy 0
; stop printing object BatteryMount_LargeBox.STL id:0 copy 0

;TYPE:Custom
M862.3 P "MK3" ; printer model check
M862.1 P0.4 ; nozzle diameter check
M115 U3.13.0 ; tell printer latest fw version
G90 ; use absolute coordinates
M83 ; extruder relative mode
M104 S215 ; set extruder temp
M140 S60 ; set bed temp
M190 S60 ; wait for bed temp
M109 S215 ; wait for extruder temp
G28 W ; home all without mesh bed level
G80 ; mesh bed leveling

G1 Z0.2 F720
G1 Y-3 F1000 ; go outside print area
G92 E0
G1 X60 E9 F1000 ; intro line
G1 X100 E12.5 F1000 ; intro line

G92 E0
M221 S95

; Don't change E values below. Excessive value can damage the printer.
M907 E430 ; set extruder motor current
G21 ; set units to millimeters
G90 ; use absolute coordinates
M83 ; use relative distances for extrusion
M900 K0.05 ; Filament gcode LA 1.5
M900 K30 ; Filament gcode LA 1.0
M107
;LAYER_CHANGE
;Z:0.2
;HEIGHT:0.2
;BEFORE_LAYER_CHANGE
G92 E0.0
;0.2


G1 E-.8 F2100
G1 Z.2 F720
;AFTER_LAYER_CHANGE
;0.2
G1 X86.208 Y66.602 F10800
G1 Z.2 F720
G1 E.8 F2100
M204 S800
;TYPE:Skirt/Brim
;WIDTH:0.42
G1 F1200
G1 X86.95 Y65.679 E.03713
G1 X87.817 Y64.897 E.03661
G1 X89.12 Y64.099 E.04791
G1 X90.19 Y63.687 E.03595
G1 X90.963 Y63.5 E.02494
G1 X92.3 Y63.373 E.04211
G1 X157.887 Y63.38 E2.05643
G1 X159.037 Y63.5 E.03625
G1 X160.145 Y63.796 E.03596
G1 X160.877 Y64.098 E.02483
G1 X161.881 Y64.678 E.03635
G1 X163.043 Y65.671 E.04792
G1 X163.772 Y66.569 E.03627
G1 X164.351 Y67.57 E.03626
G1 X164.651 Y68.295 E.0246
G1 X164.95 Y69.413 E.03629
G1 X165.07 Y70.564 E.03628
G1 X165.077 Y139.25 E2.1536
G1 X164.95 Y140.587 E.04211
M73 P0 R123
G1 X164.651 Y141.705 E.03629
G1 X164.351 Y142.43 E.0246
G1 X163.772 Y143.431 E.03626
G1 X163.043 Y144.329 E.03627
G1 X162.183 Y145.103 E.03628
G1 X160.88 Y145.901 E.04791
G1 X159.81 Y146.313 E.03595
G1 X159.04 Y146.499 E.02484
G1 X157.7 Y146.627 E.04221
G1 X92.3 Y146.627 E2.05057
G1 X90.963 Y146.5 E.04211
G1 X89.845 Y146.201 E.03629
G1 X88.788 Y145.732 E.03626
G1 X87.826 Y145.108 E.03595
G1 X87.229 Y144.6 E.02458
G1 X86.452 Y143.738 E.03639
G1 X85.649 Y142.43 E.04812
G1 X85.233 Y141.35 E.03629
G1 X85.05 Y140.587 E.0246
G1 X84.923 Y139.25 E.04211
G1 X84.923 Y70.75 E2.14777
G1 X85.05 Y69.413 E.04211
G1 X85.346 Y68.305 E.03596
G1 X85.646 Y67.577 E.02469
G1 X86.178 Y66.654 E.0334
M204 S1000
; printing object BatteryMount_LargeBox.STL id:0 copy 0
;WIPE_START
G1 F8640
G1 X86.208 Y66.602 E-.01386
G1 X86.95 Y65.679 E-.27345
G1 X87.817 Y64.897 E-.26959
G1 X88.715 Y64.347 E-.2431
;WIPE_END
G1 Z.6 F720
G1 X159.419 Y67.765 F10800
G1 Z.2 F720
G1 E.8 F2100
M204 S800
;TYPE:Perimeter
;WIDTH:0.419999
G1 F1200
G1 X159.246 Y67.743 E.00547
G1 X158.696 Y67.748 E.01725
G1 X158.151 Y67.846 E.01736
G1 X157.63 Y68.035 E.01738
G1 X157.149 Y68.309 E.01736
G1 X156.721 Y68.66 E.01736
G1 X156.358 Y69.079 E.01738
G1 X156.071 Y69.553 E.01737
G1 X155.869 Y70.069 E.01737
G1 X155.757 Y70.612 E.01738
G1 X155.738 Y71.165 E.01735
G1 X155.813 Y71.714 E.01737
G1 X155.979 Y72.243 E.01738
G1 X156.233 Y72.735 E.01736
G1 X156.566 Y73.178 E.01738
G1 X156.969 Y73.558 E.01737
G1 X157.43 Y73.865 E.01737
G1 X157.937 Y74.089 E.01738
G1 X158.474 Y74.224 E.01736
G1 X159.027 Y74.266 E.01739
G1 X159.578 Y74.215 E.01735
G1 X160.113 Y74.071 E.01737
G1 X160.616 Y73.838 E.01738
G1 X161.159 Y73.449 E.02094
G1 X161.159 Y136.551 E1.97852
G1 X160.807 Y136.279 E.01395
G1 X160.321 Y136.013 E.01737
G1 X159.797 Y135.832 E.01738
G1 X159.25 Y135.743 E.01738
G1 X158.696 Y135.748 E.01737
G1 X158.151 Y135.846 E.01736
G1 X157.63 Y136.035 E.01738
G1 X157.149 Y136.309 E.01736
G1 X156.721 Y136.66 E.01736
G1 X156.358 Y137.079 E.01738
G1 X156.071 Y137.553 E.01737
G1 X155.869 Y138.069 E.01737
G1 X155.757 Y138.612 E.01738
G1 X155.738 Y139.165 E.01735
G1 X155.813 Y139.714 E.01737
G1 X155.979 Y140.243 E.01738
G1 X156.233 Y140.735 E.01736
G1 X156.566 Y141.178 E.01738
G1 X156.969 Y141.558 E.01737
G1 X157.43 Y141.865 E.01737
G1 X157.937 Y142.089 E.01738
G1 X158.474 Y142.224 E.01736
G1 X159.027 Y142.266 E.01739
G1 X159.419 Y142.235 E.01233
G1 X159.268 Y142.328 E.00556
G1 X158.767 Y142.535 E.017
G1 X158.24 Y142.661 E.01699
G1 X157.639 Y142.709 E.0189
G1 X92.347 Y142.708 E2.04718
G1 X91.741 Y142.657 E.01907
G1 X91.214 Y142.527 E.01702
G1 X90.586 Y142.238 E.02168
G1 X91.027 Y142.266 E.01386
G1 X91.578 Y142.215 E.01735
G1 X92.113 Y142.071 E.01737
G1 X92.616 Y141.838 E.01738
G1 X93.073 Y141.525 E.01737
G1 X93.47 Y141.138 E.01738
G1 X93.795 Y140.69 E.01735
G1 X94.041 Y140.193 E.01739
G1 X94.199 Y139.662 E.01737
G1 X94.264 Y139.112 E.01736
G1 X94.236 Y138.559 E.01736
G1 X94.115 Y138.018 E.01738
G1 X93.905 Y137.506 E.01735
G1 X93.61 Y137.036 E.0174
G1 X93.241 Y136.623 E.01736
G1 X92.807 Y136.279 E.01736
G1 X92.321 Y136.013 E.01737
G1 X91.797 Y135.832 E.01738
G1 X91.25 Y135.743 E.01738
G1 X90.696 Y135.748 E.01737
G1 X90.151 Y135.846 E.01736
G1 X89.63 Y136.035 E.01738
G1 X89.149 Y136.309 E.01736
G1 X88.841 Y136.554 E.01234
G1 X88.841 Y73.446 E1.9787
G1 X88.969 Y73.558 E.00533
G1 X89.43 Y73.865 E.01737
G1 X89.937 Y74.089 E.01738
G1 X90.474 Y74.224 E.01736
G1 X91.027 Y74.266 E.01739
G1 X91.578 Y74.215 E.01735
G1 X92.113 Y74.071 E.01737
G1 X92.721 Y73.779 E.02115
G1 X93.139 Y73.472 E.01626
G1 X93.492 Y73.114 E.01576
G1 X93.795 Y72.69 E.01634
G1 X94.041 Y72.193 E.01739
G1 X94.199 Y71.662 E.01737
G1 X94.264 Y71.112 E.01736
G1 X94.236 Y70.559 E.01736
G1 X94.115 Y70.018 E.01738
G1 X93.905 Y69.506 E.01735
G1 X93.61 Y69.036 E.0174
G1 X93.241 Y68.623 E.01736
G1 X92.807 Y68.279 E.01736
G1 X92.321 Y68.013 E.01737
G1 X91.797 Y67.832 E.01738
G1 X91.25 Y67.743 E.01738
G1 X90.586 Y67.762 E.02083
G1 X90.732 Y67.672 E.00538
G1 X91.233 Y67.465 E.017
G1 X91.76 Y67.339 E.01699
G1 X92.361 Y67.291 E.0189
G1 X156.861 Y67.291 E2.02235
G1 X157.654 Y67.292 E.02486
G1 X158.259 Y67.343 E.01904
G1 X158.778 Y67.469 E.01675
G1 X159.364 Y67.74 E.02024
M204 S1000
G1 X159.589 Y68.178 F10800
M204 S800
G1 F1200
G1 X159.202 Y68.117 E.01228
G1 X158.745 Y68.123 E.01433
G1 X158.333 Y68.192 E.0131
G1 X157.9 Y68.333 E.01428
G1 X157.347 Y68.63 E.01968
G1 X156.97 Y68.943 E.01536
G1 X156.651 Y69.316 E.01539
G1 X156.401 Y69.737 E.01535
G1 X156.225 Y70.195 E.01538
G1 X156.128 Y70.675 E.01535
G1 X156.115 Y71.165 E.01537
G1 X156.184 Y71.651 E.01539
G1 X156.335 Y72.117 E.01536
G1 X156.562 Y72.551 E.01536
G1 X156.859 Y72.941 E.01537
G1 X157.218 Y73.275 E.01537
G1 X157.628 Y73.543 E.01536
G1 X158.078 Y73.739 E.01539
G1 X158.554 Y73.855 E.01536
G1 X159.043 Y73.89 E.01537
G1 X159.53 Y73.841 E.01535
G1 X160.003 Y73.71 E.01539
G1 X160.447 Y73.502 E.01537
G1 X160.849 Y73.221 E.01538
G1 X161.197 Y72.877 E.01534
G1 X161.536 Y72.384 E.01876
G1 X161.536 Y137.616 E2.0453
G1 X161.298 Y137.247 E.01377
G1 X160.969 Y136.884 E.01536
G1 X160.583 Y136.582 E.01537
G1 X160.151 Y136.349 E.01539
G1 X159.687 Y136.193 E.01535
G1 X159.202 Y136.117 E.01539
G1 X158.712 Y136.124 E.01537
G1 X158.231 Y136.214 E.01534
G1 X157.771 Y136.385 E.01539
G1 X157.347 Y136.63 E.01535
G1 X156.97 Y136.943 E.01536
G1 X156.651 Y137.316 E.01539
G1 X156.401 Y137.737 E.01535
G1 X156.225 Y138.195 E.01538
G1 X156.128 Y138.675 E.01535
G1 X156.115 Y139.165 E.01537
G1 X156.184 Y139.651 E.01539
G1 X156.335 Y140.117 E.01536
G1 X156.562 Y140.551 E.01536
G1 X156.859 Y140.941 E.01537
G1 X157.218 Y141.275 E.01537
G1 X157.628 Y141.543 E.01536
G1 X158.078 Y141.739 E.01539
G1 X158.554 Y141.855 E.01536
G1 X159.043 Y141.89 E.01537
G1 X159.53 Y141.841 E.01535
G1 X160.003 Y141.71 E.01539
G1 X160.447 Y141.502 E.01537
G1 X160.849 Y141.221 E.01538
G1 X161.134 Y140.943 E.01248
G1 X160.8 Y141.503 E.02044
G1 X160.41 Y141.96 E.01884
G1 X159.953 Y142.35 E.01884
G1 X159.44 Y142.665 E.01887
G1 X158.884 Y142.895 E.01887
G1 X158.299 Y143.035 E.01886
G1 X157.654 Y143.086 E.02029
G1 X92.346 Y143.086 E2.04768
G1 X91.701 Y143.035 E.02029
M73 Q0 S124
G1 X91.116 Y142.895 E.01886
G1 X90.56 Y142.665 E.01887
G1 X90.047 Y142.35 E.01887
G1 X89.59 Y141.96 E.01884
G1 X89.2 Y141.503 E.01884
G1 X88.886 Y140.99 E.01886
G1 X89.218 Y141.275 E.01372
G1 X89.628 Y141.543 E.01536
G1 X90.078 Y141.739 E.01539
G1 X90.554 Y141.855 E.01536
G1 X91.043 Y141.89 E.01537
G1 X91.53 Y141.841 E.01535
G1 X92.003 Y141.71 E.01539
G1 X92.447 Y141.502 E.01537
G1 X92.849 Y141.221 E.01538
G1 X93.197 Y140.877 E.01534
G1 X93.483 Y140.479 E.01537
G1 X93.697 Y140.038 E.01537
G1 X93.834 Y139.567 E.01538
G1 X93.889 Y139.08 E.01537
G1 X93.861 Y138.591 E.01536
G1 X93.75 Y138.113 E.01539
G1 X93.561 Y137.661 E.01536
G1 X93.298 Y137.247 E.01538
G1 X92.969 Y136.884 E.01536
G1 X92.583 Y136.582 E.01537
G1 X92.151 Y136.349 E.01539
G1 X91.687 Y136.193 E.01535
G1 X91.202 Y136.117 E.01539
G1 X90.712 Y136.124 E.01537
G1 X90.231 Y136.214 E.01534
G1 X89.771 Y136.385 E.01539
G1 X89.347 Y136.63 E.01535
G1 X88.97 Y136.943 E.01536
G1 X88.651 Y137.316 E.01539
G1 X88.464 Y137.624 E.0113
G1 X88.464 Y72.376 E2.0458
G1 X88.562 Y72.551 E.00629
G1 X88.859 Y72.941 E.01537
G1 X89.218 Y73.275 E.01537
G1 X89.628 Y73.543 E.01536
G1 X90.078 Y73.739 E.01539
G1 X90.554 Y73.855 E.01536
G1 X91.043 Y73.89 E.01537
G1 X91.53 Y73.841 E.01535
G1 X92.003 Y73.71 E.01539
G1 X92.447 Y73.502 E.01537
G1 X92.849 Y73.221 E.01538
G1 X93.197 Y72.877 E.01534
G1 X93.483 Y72.479 E.01537
G1 X93.697 Y72.038 E.01537
G1 X93.834 Y71.567 E.01538
G1 X93.889 Y71.08 E.01537
G1 X93.861 Y70.591 E.01536
G1 X93.75 Y70.113 E.01539
G1 X93.561 Y69.661 E.01536
G1 X93.298 Y69.247 E.01538
G1 X92.969 Y68.884 E.01536
G1 X92.583 Y68.582 E.01537
G1 X92.151 Y68.349 E.01539
G1 X91.687 Y68.193 E.01535
G1 X91.211 Y68.118 E.01511
G1 X90.767 Y68.122 E.01392
G1 X90.294 Y68.201 E.01504
G1 X89.771 Y68.385 E.01738
G1 X89.333 Y68.639 E.01588
G1 X88.871 Y69.045 E.01928
G1 X89.2 Y68.497 E.02004
G1 X89.59 Y68.04 E.01884
G1 X90.047 Y67.65 E.01884
G1 X90.56 Y67.335 E.01887
G1 X91.116 Y67.105 E.01887
G1 X91.701 Y66.965 E.01886
G1 X92.346 Y66.914 E.02029
G1 X157.683 Y66.916 E2.04859
G1 X158.347 Y66.976 E.0209
G1 X158.922 Y67.121 E.01859
G1 X159.471 Y67.355 E.01871
G1 X159.975 Y67.669 E.01862
G1 X160.42 Y68.052 E.01841
G1 X160.804 Y68.504 E.0186
G1 X161.134 Y69.057 E.02019
G1 X160.658 Y68.638 E.01988
G1 X160.177 Y68.362 E.01739
G1 X159.687 Y68.193 E.01625
G1 X159.648 Y68.187 E.00124
M204 S1000
;WIPE_START
G1 F8640
G1 X159.589 Y68.178 E-.01378
G1 X159.202 Y68.117 E-.09046
G1 X158.745 Y68.123 E-.10553
G1 X158.333 Y68.192 E-.09646
G1 X157.9 Y68.333 E-.10515
G1 X157.347 Y68.63 E-.14494
G1 X156.97 Y68.943 E-.11314
G1 X156.651 Y69.316 E-.11333
G1 X156.613 Y69.38 E-.01721
;WIPE_END
G1 Z.6 F720
G1 X88.171 Y139.853 F10800
G1 Z.2 F720
G1 E.8 F2100
M204 S800
;WIDTH:0.50275
G1 F1200
G1 X88.152 Y139.773 E.00314
;WIDTH:0.463085
G1 X88.094 Y139.211 E.01974
;WIDTH:0.439456
G1 X88.087 Y137.905 E.04306
;WIDTH:0.419999
G1 X88.087 Y72.577 E2.04831
;WIDTH:0.451647
G1 X88.094 Y71.165 E.04799
;WIDTH:0.451208
G1 X88.136 Y70.36 E.02737
;WIDTH:0.489381
G1 X88.23 Y69.871 E.01849
;WIDTH:0.516054
G1 X88.309 Y69.628 E.01005
;WIDTH:0.542727
G1 X88.442 Y69.203 E.01851
;WIDTH:0.501818
G1 X88.495 Y69.021 E.00723
;WIDTH:0.460909
G1 X88.548 Y68.838 E.00662
;WIDTH:0.419999
G1 X88.894 Y68.275 E.02072
G1 X89.323 Y67.773 E.0207
G1 X89.825 Y67.344 E.0207
G1 X90.388 Y66.998 E.02072
G1 X90.999 Y66.746 E.02072
G1 X91.641 Y66.591 E.02071
G1 X92.331 Y66.537 E.0217
G1 X157.669 Y66.537 E2.04862
G1 X158.359 Y66.591 E.0217
G1 X159.001 Y66.746 E.02071
G1 X159.612 Y66.998 E.02072
G1 X160.175 Y67.344 E.02072
G1 X160.677 Y67.773 E.0207
G1 X161.021 Y68.175 E.01659
G1 X161.337 Y68.651 E.01791
G1 X161.577 Y69.141 E.01711
;WIDTH:0.430579
G1 X161.744 Y69.635 E.01681
;WIDTH:0.473777
G1 X161.835 Y70.13 E.01803
G1 X161.904 Y70.789 E.02374
;WIDTH:0.437962
G1 X161.907 Y70.935 E.0048
;WIDTH:0.450298
G1 X161.913 Y72.003 E.03618
;WIDTH:0.419999
G1 X161.913 Y137.666 E2.05881
;WIDTH:0.457167
G1 X161.894 Y138.471 E.02774
G1 X161.908 Y139 E.01823
;WIDTH:0.444568
G1 X161.875 Y139.541 E.0181
;WIDTH:0.479297
G1 X161.751 Y140.294 E.02769
;WIDTH:0.449648
G1 X161.704 Y140.551 E.00884
;WIDTH:0.419999
G1 X161.452 Y141.162 E.02072
G1 X161.106 Y141.725 E.02072
G1 X160.677 Y142.227 E.0207
G1 X160.175 Y142.656 E.0207
G1 X159.612 Y143.002 E.02072
G1 X159.001 Y143.254 E.02072
G1 X158.359 Y143.409 E.02071
G1 X157.669 Y143.463 E.0217
G1 X92.331 Y143.463 E2.04862
G1 X91.641 Y143.409 E.0217
G1 X90.999 Y143.254 E.02071
G1 X90.388 Y143.002 E.02072
G1 X89.825 Y142.656 E.02072
G1 X89.323 Y142.227 E.0207
G1 X88.894 Y141.725 E.0207
G1 X88.564 Y141.187 E.01979
;WIDTH:0.467281
G1 X88.499 Y140.973 E.00789
;WIDTH:0.514563
G1 X88.269 Y140.265 E.02919
;WIDTH:0.50275
G1 X88.185 Y139.911 E.01391
M204 S1000
G1 X87.768 Y139.968 F10800
M204 S800
;TYPE:External perimeter
;WIDTH:0.419999
G1 F1200
G1 X87.71 Y139.234 E.02309
G1 X87.71 Y70.766 E2.14676
G1 X87.768 Y70.032 E.02309
M73 P1 R122
M73 Q1 S124
G1 X87.936 Y69.332 E.02257
G1 X88.211 Y68.667 E.02256
G1 X88.588 Y68.053 E.02259
G1 X89.055 Y67.505 E.02257
G1 X89.603 Y67.038 E.02257
G1 X90.217 Y66.661 E.02259
G1 X90.882 Y66.386 E.02256
G1 X91.582 Y66.218 E.02257
G1 X92.316 Y66.16 E.02309
G1 X157.684 Y66.16 E2.04956
G1 X158.418 Y66.218 E.02309
G1 X159.118 Y66.386 E.02257
G1 X159.783 Y66.661 E.02256
G1 X160.397 Y67.038 E.02259
G1 X160.945 Y67.505 E.02257
G1 X161.369 Y68.002 E.02048
G1 X161.658 Y68.454 E.01682
G1 X161.925 Y68.996 E.01894
G1 X162.116 Y69.546 E.01826
G1 X162.237 Y70.098 E.01772
G1 X162.29 Y70.789 E.02173
G1 X162.29 Y139.234 E2.14604
G1 X162.232 Y139.968 E.02309
G1 X162.064 Y140.668 E.02257
G1 X161.789 Y141.333 E.02256
G1 X161.412 Y141.947 E.02259
G1 X160.945 Y142.495 E.02257
G1 X160.397 Y142.962 E.02257
G1 X159.783 Y143.339 E.02259
G1 X159.118 Y143.614 E.02256
G1 X158.418 Y143.782 E.02257
G1 X157.684 Y143.84 E.02309
G1 X92.316 Y143.84 E2.04956
G1 X91.582 Y143.782 E.02309
G1 X90.882 Y143.614 E.02257
G1 X90.217 Y143.339 E.02256
G1 X89.603 Y142.962 E.02259
G1 X89.055 Y142.495 E.02257
G1 X88.588 Y141.947 E.02257
G1 X88.211 Y141.333 E.02259
G1 X87.936 Y140.668 E.02256
G1 X87.782 Y140.026 E.0207
M204 S1000
;WIPE_START
G1 F8640
G1 X87.768 Y139.968 E-.01378
G1 X87.71 Y139.234 E-.17001
G1 X87.71 Y136.565 E-.61621
;WIPE_END
G1 Z.6 F720
G1 X159.525 Y68.546 F10800
G1 Z.2 F720
G1 E.8 F2100
M204 S800
;TYPE:Perimeter
G1 F1200
G1 X159.576 Y68.553 E.00161
G1 X160.007 Y68.699 E.01427
G1 X160.434 Y68.941 E.01539
G1 X160.827 Y69.282 E.01631
G1 X161.159 Y69.715 E.01711
;WIDTH:0.447709
G1 X161.284 Y69.952 E.00902
;WIDTH:0.475419
G1 X161.409 Y70.189 E.00964
G1 X161.51 Y70.806 E.02248
;WIDTH:0.445804
G1 X161.498 Y71.379 E.0192
G1 X161.354 Y71.882 E.01753
;WIDTH:0.419999
G1 X161.171 Y72.267 E.01337
G1 X160.925 Y72.616 E.01339
G1 X160.696 Y72.855 E.01038
G1 X160.277 Y73.165 E.01634
G1 X159.892 Y73.35 E.01339
G1 X159.483 Y73.467 E.01334
G1 X159.059 Y73.513 E.01337
G1 X158.633 Y73.487 E.01338
G1 X158.218 Y73.389 E.01337
G1 X157.826 Y73.222 E.01336
G1 X157.467 Y72.992 E.01337
G1 X157.153 Y72.704 E.01336
G1 X156.891 Y72.368 E.01336
G1 X156.69 Y71.991 E.0134
G1 X156.556 Y71.587 E.01335
G1 X156.492 Y71.165 E.01338
G1 X156.5 Y70.739 E.01336
G1 X156.58 Y70.32 E.01337
G1 X156.73 Y69.921 E.01337
G1 X156.945 Y69.553 E.01336
G1 X157.219 Y69.226 E.01338
G1 X157.544 Y68.951 E.01335
G1 X158.04 Y68.683 E.01768
G1 X158.633 Y68.513 E.01934
G1 X159.153 Y68.491 E.01632
G1 X159.466 Y68.537 E.00992
M204 S1000
G1 X159.483 Y68.919 F10800
M204 S800
;TYPE:External perimeter
G1 F1200
G1 X159.837 Y69.036 E.01169
G1 X160.21 Y69.244 E.01339
